X:1
T:Erlkonig
T:Erlkönig
T:Franz Schubert (arr. C. G. Wolf)
T:After text by J. W. Goethe
%%score ( 1 2 ) 3
L:1/8
M:4/4
K:Bb
V:1 treble nm="Violin" snm="Vln."
V:2 treble 
V:3 alto nm="Viola" snm="Vla."
V:1
!f!"^Schnell. (Presto.)" (3[G,G][G,G][G,G] (3[G,G][G,G][G,G] (3[G,G][G,G][G,G] (3[G,G][G,G][G,G] | %1
 (3[G,G][G,G][G,G] (3[G,G][G,G][G,G] (3[G,G][G,G][G,G] (3[G,G][G,G][G,G] | %2
 (3[G,G][G,G][G,G] (3[G,G][G,G][G,G] (3[G,G][G,G][G,G] (3[G,G][G,G][G,G] | %3
 (3[G,G][G,G][G,G] (3[G,G][G,G][G,G] (3[G,G][G,G][G,G] (3[G,G][G,G][G,G] | %4
 (3[G,G][G,G][G,G] (3[G,G][G,G][G,G] (3[G,G][G,G][G,G] (3[G,G][G,G][G,G] | %5
!<(! (3[GA][GA][GA] (3[GA][GA][GA] (3[GA][GA][GA] (3[GA][GA][GA]!<)! | %6
!>(! (3[GB][GB][GB] (3[GB][GB][GB] (3[^FA][FA][FA] (3[FA][FA][FA]!>)! | %7
 (3[G,G][G,G][G,G] (3[G,G][G,G][G,G] (3[G,G][G,G][G,G] (3[G,G][G,G][G,G] | %8
 (3[G,G][G,G][G,G] (3[G,G][G,G][G,G] (3[G,G][G,G][G,G] (3[G,G][G,G][G,G] | %9
 (3[G,G][G,G][G,G] (3[G,G][G,G][G,G] (3[G,G][G,G][G,G] (3[G,G][G,G][G,G] | %10
 (3[G,G][G,G][G,G] (3[G,G][G,G][G,G] (3[G,G][G,G][G,G] (3[G,G][G,G][G,G] | %11
 (3[G,G][G,G][G,G] (3[G,G][G,G][G,G] (3[G,G][G,G][G,G] (3[G,G][G,G][G,G] | %12
 (3[GA][GA][GA] (3[GA][GA][GA] (3[GA][GA][GA] (3[GA][GA][GA] | %13
 (3[GB][GB][GB] (3[GB][GB][GB] (3[GB][GB][GB] (3[B,G][B,G][B,G] | %14
 (3[A,^F][A,F][A,F] (3[A,F][A,F][A,F] (3[A,F][A,F][A,F] A2 | [DB]4 [DA]2 [B,G]2 | [^FA]6 A2 | %17
 B4 G4 |"^A" [^Fd]4 z4 | z4 z2 d2 | (d6 !tenuto!g2) | g4 e2 c2 | (f6 !tenuto![FA]2) | %23
 [DB]4 z2 u[DB]2 | [_Ge]6 [EA]2 | c2 B2 B4 | [_Ge]4 [EA]3 !tenuto![EA] | (c2 B2) z2 [DB]2 | %28
 ([^Fd]6 !tenuto![FA]2) | (c2 B2) z2 u[EG]2 | [EA]4 [A,^F]4 | %31
 (3[G,G][G,G][G,G] (3[G,G][G,G][G,G] (3[G,G][G,G][G,G] (3[G,G][G,G][G,G] | %32
 (3[G,G][G,G][G,G] (3[G,G][G,G][G,G] (3[G,G][G,G][G,G] (3[G,G][G,G][G,G] | %33
 (3[G,G][G,G][G,G] (3[G,G][G,G][G,G] (3[G,G][G,G][G,G] (3[G,G][G,G][G,G] | %34
!pp! (3[G,G][G,G][G,G] (3[G,G][G,G][G,G] (3[G,G][G,G][G,G] (3[G,G][G,G][G,G] | %35
 (3[G,G][G,G][G,G] (3[G,G][G,G][G,G] (3[G,G][G,G][G,G] (3[G,G][G,G][G,G] | %36
 (3[G,G][G,G][G,G] (3[G,G][G,G][G,G] (3[G,G][G,G][G,G] (3[G,G][G,G][G,G] | %37
 (3[G,G][G,G][G,G] (3[G,G][G,G][G,G] (3[GA][GA][GA] (3[GA][GA][GA] | %38
 (3[GB][GB][GB] (3[GB][GB][GB] (3G,[F=B][FB] (3[FB][FB][FB] | %39
"^B" (3[Ec][Ec][Ec] (3[Ec][Ec][Ec] (3[Ec][Ec][Ec] (3[Ec][Ec][Ec] | %40
 (3[Ec][Ec][Ec] (3[Ec][Ec][Ec] (3[Ec][Ec][Ec] c2 | ([Fc]6 !tenuto!G2) | ([Ge]6 !tenuto![Ec]2) | %43
 [Fd]4 ([Fd]2 !tenuto!G2) | [Ge]4 (3GGG (3_GGG | %45
 (3[A,F][A,F][A,F] (3[A,F][A,F][A,F] (3[A,F][A,F][A,F] [Fc]2 | ([=E_d]6 !tenuto![EB]2) | %47
 [FA]2 [A,F]2 z2 [Fc]2 | [=E_d]6 (ucB) |{/A,} [Fc]4 (3FFF (3FFF | (3FFF (3FFF (3FFF (3FFF | %51
 (3FFF (3FFF (3FFF (3FFF | (3FFF (3FFF (3FFF (3FFF | %53
 (3[B,F][B,F][B,F] (3[B,F][B,F][B,F] (3[B,F][B,F][B,F] (3[B,F][B,F][B,F] | %54
 (3[DF][DF][DF] (3[DF][DF][DF] (3[DF][DF][DF] (3[DF][DF][DF] | %55
 (3[CG][CG][CG] (3[CG][CG][CG] (3[G,E][G,E][G,E] (3[G,E][G,E]"^C"[G,E] | %56
 (3[B,D][B,D][B,D] (3[B,D][B,D][B,D] C2 c2 | (d6 !tenuto!B2) | (F6 !tenuto!c2) | (d6 !tenuto!B2) | %60
 (F6 !tenuto!c2) | (d6 !tenuto!B2) | (f4 c4) | (c2 (3=Bcd) (c2 =E2) | (F6 !tenuto!F2) | %65
 (c6 !tenuto!^c2) | d4 (B2 B=B) | (c6 !tenuto!F2) | d6 dd | (g3 f) ((fe))(dc) | (B4 Bc)dc | %71
 B4 z2!f! d2 | e4 (e3 !tenuto!e) | (ed) d2 z2 d2 | e4 (e3 !tenuto!e) | d4 z2!p! [DA]2 | %76
 B2 A2 B2 =BB | c4 (^c3 !tenuto!c) | d2 (3[Dd][Dd][Dd] (3[Dd][Dd][Dd] (3[Dd][Dd][Dd] | %79
 (3[Dd][Dd][Dd] (3[=E^c][Ec][Ec] (3[D=B][DB][DB] (3[^C^A][CA][CA] || %80
[K:C] (3[DB][DB][DB] (3[DB][DB][DB] (3DDD (3^DDD | %81
 (3[B,E][B,E][B,E] (3[B,E][B,E][B,E] (3[B,E][B,E][B,E] (3[B,E][B,E][B,E] | %82
 (3[B,E][B,E][B,E] (3[B,E][B,E][B,E] (3[CE][CE][CE] (3[CE][CE][CE] | %83
 (3[B,D][B,D][B,D] (3[B,D][B,D][B,D] (3[CD][CD][CD] (3[CD][CD][CD] | %84
 (3[B,D]!<(![B,D][B,D] (3[B,D][B,D][B,D] (3[B,D][B,D][B,D] (3[B,D][B,D][B,D]!<)! | %85
 (3[B,D]!>(![B,D][B,D] (3[B,D][B,D][B,D] (3[G,=F][G,F][G,F] (3[G,=F][G,F][G,F]!>)! | %86
!pp! (3[G,E]CE (3GEC (3G,CE (3GEC | (3G,B,F (3GFB, (3G,CE (3GEC | (3^G,DE (3^GED (3A,CE (3AEC | %89
 (3^G,DE (3^GED (3A,CE (3AEC | (3DCD (3^FDC (3G,B,D (3GDB, | (3^FCD (3FDC (3G,B,D (3GDB, | %92
 (3G,B,=F (3GFB, (3G,CE (3GEC | (3G,DF (3GFD (3G,CE (3GEC | (3G,B,F (3GFD (3G,CE (3GEC | %95
 (3G,DF (3GFD!f! (3C!>(![Ee][Ee] (3[Ee][Ee][Ee]!>)! | %96
 (3.[Ee].[Ee].[Ee] (3.[Ee].[Ee].[Ee] (3[Ee][Ee][Ee] e2 | f4 (f3 !tenuto!f) | (fe) e2 z2 ue2 | %99
 f4 (f3 !tenuto!f) | e4 z2 B2 | c2 B2 c2 ^cc | d4"^D" ^d4 | %103
 e2 (3[Ee][Ee][Ee] (3[Ee][Ee][Ee] (3[Ee][Ee][Ee] | %104
 (3[Ee][Ee][Ee]!>(! (3[^F^d][Fd][Fd] (3[E^c][Ec][Ec] (3[^D^B][DB][DB]!>)! | %105
 (3[^C^c][Cc][Cc] (3[Cc][Cc][Cc] (3[Cc][Cc][Cc] (3[Cc][Cc][Cc] | %106
 (3[^C^c][Cc][Cc] (3[Cc][Cc][Cc] (3[Cc][Cc][Cc] (3[Cc][Cc][Cc] | %107
 (3[G^c][Gc][Gc] (3[Gc][Gc][Gc] (3[Gc][Gc][Gc] (3[Gc][Gc][Gc] | %108
 (3[Fd][Fd][Fd] (3[Fd][Fd][Fd] (3[Fd][Fd][Fd] (3[Fd][Fd][Fd] | %109
 (3G,[Ed][Ed] (3[Ed][Ed][Ed] (3[Ed][Ed][Ed] (3[Ed][Ed][Ed] | %110
 (3A,[Fd][Fd] (3[Fd][Fd][Fd] (3[E^c][Ec][Ec] (3[Ec][Ec][Ec] | %111
!ff! (3[Dd]!>(![Dd][Dd] (3[Dd][Dd][Dd] (3[Dd][Dd][Dd] (3[Dd][Dd][Dd]!>)! | %112
 (3[Dd][Dd][Dd] (3[Dd][Dd][Dd] (3[Dd][Dd][Dd] (3[Dd][Dd][Dd] | %113
 (3[Dd][Dd][Dd] (3[Dd][Dd][Dd] (3[Dd][Dd][Dd] (3[Dd][Dd][Dd] | %114
 (3[Dd][Dd][Dd] (3[Dd][Dd][Dd] (3[Dd][Dd][Dd] (3[Dd][Dd][Dd] | %115
 (3[Dd][Dd][Dd] (3[Dd][Dd][Dd] [Dd]2!p! d2 | (_e3 !tenuto!_B) (!tenuto!B2 !tenuto!e2) | %117
 d2 d_e f2 ed | (_e6 !tenuto!d2) | ^c4 c2 c2 | d4 (d3 !tenuto!^G) | A4 A3 A | %122
"^E"!ff! D4!>(! z2 f2!>)! | _g4 (g3 !tenuto!g) | (_gf) f2 z2 f2 | _g4 (g3 !tenuto!g) | f4 z4 | %127
 f4 (^f3 !tenuto!f) | =g4 (_e3 !tenuto!e) | d6 ud2 || %130
[K:Bb]!ff! (3[G,G][G,G][G,G] (3[G,G][G,G][G,G] (3[G,G][G,G][G,G] (3[G,G][G,G][G,G] | %131
 (3[G,G][G,G][G,G] (3[G,G][G,G][G,G] (3[G,G][G,G][G,G] D2 | D6 D2 | (A2 G2) z2 G2 | %134
"_cresc. ed accel." G4 ([GA]3 !tenuto![GA]) | [GB]4 z2 [GB]2 | [GB]4 ([Ac]3 !tenuto![Ac]) | %137
 (e2 d2) z2 [Bd]2 | [=Bd]4 ([Bg]3 !tenuto![Bd]) | [ce]4 (3[Ec][Ec][Ec] (3[Ec][Ec][Ec] | %140
 (3[Cc][Cc][Cc] (3[Cc][Cc][Cc] (3[Cc][Cc][Cc] (3[Cc][Cc][Cc] | %141
 (3[Cc][Cc][Cc] (3[Cc][Cc][Cc] (3[Cc][Cc][Cc] c2 | [Ec]6 [C_A]2 | %143
 ([G_d]3 !tenuto![GB]) ([B,G]2 !tenuto![GB]2) | [C_A]6 z2 | %145
 z2 z/"^Recit." u_A/A/B/ (c2 !tenuto!B!tenuto!A) | G2 !fermata!z v^C uD2!f! v[=C^F] z | %147
 v[B,G]2 z2 z4 |] %148
V:2
 x8 | x8 | x8 | x8 | x8 | x8 | x8 | x8 | x8 | x8 | x8 | x8 | x8 | x8 | x8 | x8 | x8 | x8 | x8 | %19
 x8 | x8 | x8 | x8 | x8 | x8 | D4 x4 | x8 | D4 x4 | x8 | G4 x2 x2 | x8 | x8 | x8 | x8 | x8 | x8 | %36
 x8 | x8 | x8 | x8 | x8 | x8 | x8 | x8 | x8 | x8 | x8 | x8 | x8 | x8 | x8 | x8 | x8 | x8 | x8 | %55
 x8 | x8 | x8 | x8 | x8 | x8 | x8 | x8 | x8 | x8 | x8 | x8 | x8 | x8 | x8 | x8 | x8 | x8 | x8 | %74
 x8 | x8 | x8 | x8 | x8 | x8 ||[K:C] x8 | x8 | x8 | x8 | x8 | x8 | x8 | x8 | x8 | x8 | x8 | x8 | %92
 x8 | x8 | x8 | x8 | x8 | x8 | x8 | x8 | x8 | x8 | x8 | x8 | x8 | x8 | x8 | x8 | x8 | x8 | x8 | %111
 x8 | x8 | x8 | x8 | x8 | x8 | x8 | x8 | x8 | x8 | x8 | x8 | x8 | x8 | x8 | x8 | x8 | x8 | x8 || %130
[K:Bb] x8 | x8 | x8 | x8 | x8 | x8 | x8 | B4 x4 | x8 | x8 | x8 | x8 | x8 | x8 | x8 | x8 | x8 | %147
 x8 |] %148
V:3
 z8 |!f! (3(G,A,B, (3CDE) (.D2 .B,2) | .G,2 z2 z4 | (3(G,A,B, (3CDE) (.D2 .B,2) | .G,2 z2 z4 | %5
!<(! [C,C]6 [^C,^C]2!<)! |!>(! [D,D]8!>)! | G,2 z2 z4 | (3(G,A,B, (3CDE) (.D2 .B,2) | .G,2 z2 z4 | %10
 (3(G,A,B, (3CDE) (.D2 .B,2) | .G,2 z2 z4 |!pp! ([C,C]8 | [^C,^C]8) | %14
 (3(D,^F,G, (3A,B,^C D2) (3u[D^F][DF][DF] | %15
 (3v[DG][DG][DG] (3[DG][DG][DG] (3[DG][DG][DG] (3[DG][DG][DG] | %16
 (3(D,^F,G, (3A,B,^C (3D).u[D^F].[DF] (3.[DF].[DF].[DF] | %17
 (3v[DG][DG][DG] (3[DG][DG][DG] (3[B,D][B,D][B,D] (3[B,D][B,D][B,D] | %18
 (3(D,^F,G, (3A,B,^C (3D)u[D^F][DF] (3[DF][DF][DF] | %19
 (3[D^F][DF][DF] (3[DF][DF][DF] (3[DF][DF][DF] (3[DF][DF][DF] | %20
 (3[G,=F][G,F][G,F] (3[G,=F][G,F][G,F] (3[G,=F][G,F][G,F] (3[G,=F][G,F][G,F] | %21
 (3[CE][CE][CE] (3[CE][CE][CE] (3[CE][CE][CE] (3[CE][CE][CE] | %22
 (3[F,D][F,D][F,D] (3[F,D][F,D][F,D] (3[F,E][F,E][F,E] (3[F,E][F,E][F,E] | %23
 (3(B,CD (3EF_G) (.F2 !tenuto!.B,2) | (3[CE][CE][CE] (3[CE][CE][CE] (3[CE][CE][CE] (3[CE][CE][CE] | %25
 (3(B,CD (3EF_G) (.F2 !tenuto!.B,2) | (3[CE][CE][CE] (3[CE][CE][CE] (3[CE][CE][CE] (3[CE][CE][CE] | %27
 (3(B,CD (3EF_G) (.F2 !tenuto!.B,2) | (3[CD][CD][CD] (3[CD][CD][CD] (3[CD][CD][CD] (3[CD][CD][CD] | %29
 (3G,GG (3GGG (3E,GG (3GGG | (3C,GG (3GGG (3D,DD (3DDD |!f! G,2 z2 z4 | %32
!f! (3(G,A,B, (3CDE) (.D2 !tenuto!.B,2) | G,2 z2 z4 |!f! (3(G,A,B, (3CDE) (D2 !tenuto!B,2) | %35
 G,2 z2 z2 D,2 | G,4 z2"_marc." D,2 | G,4 A,3 A, | B,4 =B,3 B, |!f! (3(CE,F, (3G,A,=B,) C4 | %40
 (3(C,E,F, (3G,A,=B, (3C)[Ec][Ec] (3[Ec][Ec][Ec] | %41
 (3[_A=B][AB][AB] (3[AB][AB][AB] (3[AB][AB][AB] (3[AB][AB][AB] | %42
 (3(C,E,F, (3G,A,=B, (3C).[CE].[CE] (3.[CE].[CE].[CE] | %43
!f! (3[_A=B][AB][AB]!>(! (3[AB][AB][AB] (3[AB][AB][AB] (3[AB][AB][AB]!>)! | %44
!f! (3(C,E,F, (3G,A,=B,) C4 |!p! (3(F,A,_B, (3CD=E (3F).[F,A,].[F,A,] (3.[F,A,].[F,A,].[F,A,] | %46
 (3[F,B,][F,B,][F,B,] (3[F,B,][F,B,][F,B,] (3[F,B,][F,B,][F,B,] (3[F,_D][F,D][F,D] | %47
 (3(F,A,B, (3CDE (3F).[F,A,].[F,A,] (3.[F,A,].[F,A,].[F,A,] | %48
 (3[F,B,][F,B,][F,B,] (3[F,B,][F,B,][F,B,] (3[F,B,][F,B,][F,B,] (3[F,_D][F,D][F,D] | %49
 (3(F,A,B, (3CD=E) F4 | z4 z2 C,2 | _E,6 E,2 | F,6 C,2 | E,3 D, D,2 z2 | z2 uB,2 F,2 D,2 | %55
 E,2 z2 C,2 z2 | F,2 z2 (3v[F,A,][F,A,][F,A,] (3[F,A,][F,A,][F,A,] | %57
!pp! (3B,DF (3B,DF (3B,DF (3B,DF | (3A,CF (3A,CF (3A,CF (3A,CF | (3B,DF (3B,DF (3B,DF (3B,DF | %60
 (3A,CF (3A,CF (3A,CF (3A,CF | (3B,DF (3B,DF (3B,DF (3B,DF | (3A,CF (3A,CF (3A,CF (3A,CF | %63
 (3G,B,=E (3G,B,E (3G,B,E (3G,B,C | (3F,A,C (3F,A,C (3F,A,C (3F,A,C | %65
 (3F,C_E (3F,C_E (3F,C_E (3F,C_E | (3B,DF (3B,DF (3B,DF (3B,DF | (3F,CE (3F,CE (3F,CE (3F,CE | %68
 (3B,DF (3B,DF (3B,DF (3B,DF | (3G,=B,F (3G,B,F (3G,CE (3G,CE | %70
 (3F,_B,D (3F,_B,D (3E,F,A, (3E,F,A, | %71
!ff! (3B,[Dd][Dd] (3[Dd][Dd][Dd] (3[Dd][Dd][Dd] (3[Dd][=B,D][B,D] | !>![CD]4 !>![A,D]4 | %73
 (3[^F,D][Dd][Dd] (3[Dd][Dd][Dd] (3[Dd][Dd][Dd] (3[Dd][B,D][B,D] | !>![CD]4 !>![A,D]4 | %75
 (3[^F,D][Dd][Dd] (3[Dd][Dd][Dd] (3[Dd][Dd][Dd]!p! (3uF,DD | (3vG,DD (3^F,DD (3G,DD (3^G,DD | %77
 (3[A,D]DD (3DDD (3^A,DD (3DDD | (v[=B,D]8 | [=B,D]2) .u[=E,G,]2 .v^F,2 .uF,2 || %80
[K:C] v=B,2 uB,2 z2 v^F,uF, | vA,2 (.uG,.^F,) vG,4 | z2 G,2 A,2 A,2 | (.vB,2 .G,2) uD,2 vE,u^F, | %84
!<(! G,2 G2 D2 B,2!<)! |!>(! G,4 z2 G2!>)! |!pp! G2 (AB) c2 c^c | d2 G2 e2 d=c | B2 E2 c2 AA | %89
 B2 E2 c2 AA | A2 ^GA B2 =GG | A2 DD B2 z G | G2 AB c2 de | f2 dB c2 z G | G2 AB c2 de | %95
!8va(! (gf)dB c2 z2!8va)! | z4 z2 (!>![^CE]2 | [DE]4) [B,E]4 | %98
 (3[^G,E][Ee][Ee] (3[Ee][Ee][Ee] (3[Ee][Ee][Ee] (3[Ee][^CE][CE] | !>![DE]4 [B,E]4 | %100
 (3[^G,E][Ee][Ee] (3[Ee][Ee][Ee] (3[Ee][Ee][Ee] (3G,EE | (3A,EE (3^G,EE (3A,EE (3^A,EE | %102
 (3B,EE (3EEE (3^B,EE (3EEE | ([^CE]8 | [^CE]2) A,2 ^G,2"_marcato" G,2 | ^C4 z2 ^G,2 | A,4 z2 A,2 | %107
 A,4 (uA,3 !tenuto!A,) | vD6 uD2 | vD2 u_B,vG, (!tenuto!uE,2 !tenuto!B,2) | vA,4 (.A,2 .A,2) | %111
 D,2 z2 z4 | (3(vD,E,F, (3G,A,_B,) (.uA,2 .F,2) | .D,2 z2 z4 | (3(vD,E,F, (3G,A,_B,) (.uA,2 .F,2) | %115
 .D,2 z2!pp! (3DDD (3DDD | (3[G_B][GB][GB] (3[GB][GB][GB] (3[GB][GB][GB] (3[GB][GB][GB] | %117
 (3[_A_c][Ac][Ac] (3[Ac][Ac][Ac] (3[Ac][Ac][Ac] (3[Ac][Ac][Ac] | %118
 (3[G_B][GB][GB] (3[GB][GB][GB] (3[GB][GB][GB] (3[GB][GB][GB] | %119
 (3G,[=E_B][EB] (3[EB][EB][EB] (3[EB][EB][EB] (3[EB][EB][EB] | %120
 (3^G,[=F=B][FB] (3[FB][FB][FB] (3[FB][FB][FB] (3[FB][FB][FB] | %121
 (3B,[Fd][Fd] (3[Fd][Fd][Fd] (3[E^c][Ec][Ec] (3[Ec][Ec][Ec] | %122
!ff! (3[Fd]FF!>(! (3FFF (3FFF [DF]2!>)! | !>![_EF]4 [CF]4 | (3[A,F]FF (3FFF (3FFF [DF]2 | %125
 !>![_EF]4 [CF]4 | (3[A,F]FF (3FFF (3FFF (3FFF | [=B,D]4 [CD]4 | [_B,D]4 [CGA]4 | %129
 (3D[G_B][GB] (3[GB][GB][GB] (3[^FA][FA][FA] (3[FA][FA][FA] || %130
[K:Bb] (3[G,G][G,G][G,G] (3[G,G][G,G][G,G] (3[G,G][G,G][G,G] (3[G,G][G,G][G,G] | %131
 (3(vG,A,B, (3CDE) (.uD2 .B,2) | %132
 (3G,[G,G][G,G] (3[G,G][G,G][G,G] (3[G,G][G,G][G,G] (3[G,G][G,G][G,G] | %133
 (3(vG,A,B, (3CDE) (.uD2 .B,2) | %134
 (3G,[G,G][G,G]"_cresc. ed accel." (3[G,G][G,G][G,G] (3[G,G][G,G][G,G] (3[G,G][G,G][G,G] | %135
 (3(vG,A,B, (3CDE) (.uD2 .B,2) | %136
 (3[G,G][G,G][G,G] (3[G,G][G,G][G,G] (3[G,G][G,G][G,G] (3[G,G][G,G][G,G] | %137
 (3(vG,A,B, (3CDE) (.uD2 .B,2) | %138
 (3G,[G,G][G,G] (3[G,G][G,G][G,G] (3[G,G][G,G][G,G] (3[G,G][G,G][G,G] | %139
 (3(vC,D,E, (3F,G,_A,) (.uG,2 .E,2) |!<(! vC,4 (.u_D,2 .=D,2)!<)! | E,2 =E,2 F,2 G,2 | %142
 (3[_A,E][A,E][A,E] (3[A,E][A,E][A,E] (3[A,E][A,E][A,E] (3[A,E][A,E][A,E] | %143
 (3[_A,_F][A,F][A,F] (3[A,F][A,F][A,F] (3[A,F][A,F][A,F] (3[A,F][A,F][A,F] | %144
 (3[_A,E][A,E][A,E]!>(! (3[A,E][A,E][A,E] (3[A,E][A,E][A,E] (3[A,E][A,E][A,E]!>)! | %145
!pp! [C,_A,]4"^Recit." z4 | z!p! !fermata!u[B,=E]2 z z2!f! v[D,=A,D]"^Andante" z | v[G,D]2 z2 z4 |] %148

